web/workspace/public/assets/products/dadi-match-bg.svg

<svg viewBox="0 0 139.29 130.82" xmlns="http://www.w3.org/2000/svg"><path d="m133.79 22-35.5-20.53a11 11 0 0 0 -11 0l-12.15 7a11 11 0 0 1 -11 0l-12.14-7a11 11 0 0 0 -11 0l-35.5 20.53a11 11 0 0 0 -5.5 9.5v67.85a11 11 0 0 0 5.48 9.52l35.3 20.47a11 11 0 0 0 11 0l17.74-10.24h.21l17.74 10.24a11 11 0 0 0 11 0l35.3-20.47a11 11 0 0 0 5.48-9.52v-67.85a11 11 0 0 0 -5.46-9.5zm-17.79 70.26-23 13.3v-53.56l-23.25 13.42-23.25-13.42v53.68l-23.25-13.42v-53.69l23.25-13.42 23.25 13.42 23.15-13.36 23.1 13.36z" fill="#f1f1f1"/></svg>

<svg id="Layer_1" data-name="Layer 1" xmlns="http://www.w3.org/2000/svg" viewBox="0 0 139.29 130.82"><defs><style>.cls-1{fill:#f1f1f1;}</style></defs><title>Artboard 43</title><path class="cls-1" d="M133.79,22,98.29,1.47a11,11,0,0,0-11,0l-12.15,7a11,11,0,0,1-11,0L52,1.47a11,11,0,0,0-11,0L5.5,22A11,11,0,0,0,0,31.5V99.35a11,11,0,0,0,5.48,9.52l35.3,20.47a11,11,0,0,0,11,0l17.74-10.24h.21l17.74,10.24a11,11,0,0,0,11,0l35.3-20.47a11,11,0,0,0,5.48-9.52V31.5A11,11,0,0,0,133.79,22ZM116,92.26l-23,13.3V52L69.75,65.42h0L46.5,52l0,53.68L23.25,92.26V38.57L46.5,25.15h0L69.75,38.57,92.9,25.21,116,38.57Z"/></svg>
